images/50420047.svg

<?xml version="1.0" encoding="UTF-8"?>
<svg xmlns="http://www.w3.org/2000/svg" xmlns:xlink="http://www.w3.org/1999/xlink" width="300pt" height="300pt" viewBox="0 0 300 300" version="1.1">
<defs>
<g>
<symbol overflow="visible" id="glyph0-0">
<path style="stroke:none;" d="M 0.453125 1.59375 L 0.453125 -6.34375 L 4.953125 -6.34375 L 4.953125 1.59375 Z M 0.953125 1.09375 L 4.453125 1.09375 L 4.453125 -5.84375 L 0.953125 -5.84375 Z M 0.953125 1.09375 "/>
</symbol>
<symbol overflow="visible" id="glyph0-1">
<path style="stroke:none;" d="M 0.890625 -6.5625 L 4.65625 -6.5625 L 4.65625 -5.8125 L 1.765625 -5.8125 L 1.765625 -3.875 L 4.375 -3.875 L 4.375 -3.140625 L 1.765625 -3.140625 L 1.765625 0 L 0.890625 0 Z M 0.890625 -6.5625 "/>
</symbol>
<symbol overflow="visible" id="glyph0-2">
<path style="stroke:none;" d="M 0.890625 -6.5625 L 2.078125 -6.5625 L 4.984375 -1.078125 L 4.984375 -6.5625 L 5.84375 -6.5625 L 5.84375 0 L 4.65625 0 L 1.75 -5.484375 L 1.75 0 L 0.890625 0 Z M 0.890625 -6.5625 "/>
</symbol>
<symbol overflow="visible" id="glyph0-3">
<path style="stroke:none;" d="M 3.546875 -5.953125 C 2.898438 -5.953125 2.382812 -5.710938 2 -5.234375 C 1.625 -4.753906 1.4375 -4.101562 1.4375 -3.28125 C 1.4375 -2.445312 1.625 -1.789062 2 -1.3125 C 2.382812 -0.832031 2.898438 -0.59375 3.546875 -0.59375 C 4.191406 -0.59375 4.703125 -0.832031 5.078125 -1.3125 C 5.453125 -1.789062 5.640625 -2.445312 5.640625 -3.28125 C 5.640625 -4.101562 5.453125 -4.753906 5.078125 -5.234375 C 4.703125 -5.710938 4.191406 -5.953125 3.546875 -5.953125 Z M 3.546875 -6.6875 C 4.460938 -6.6875 5.195312 -6.375 5.75 -5.75 C 6.300781 -5.132812 6.578125 -4.3125 6.578125 -3.28125 C 6.578125 -2.238281 6.300781 -1.410156 5.75 -0.796875 C 5.195312 -0.179688 4.460938 0.125 3.546875 0.125 C 2.617188 0.125 1.878906 -0.179688 1.328125 -0.796875 C 0.773438 -1.410156 0.5 -2.238281 0.5 -3.28125 C 0.5 -4.3125 0.773438 -5.132812 1.328125 -5.75 C 1.878906 -6.375 2.617188 -6.6875 3.546875 -6.6875 Z M 3.546875 -6.6875 "/>
</symbol>
</g>
</defs>
<g id="surface27037">
<rect x="0" y="0" width="300" height="300" style="fill:rgb(100%,100%,100%);fill-opacity:1;stroke:none;"/>
<path style="fill:none;stroke-width:1.2;stroke-linecap:butt;stroke-linejoin:miter;stroke:rgb(20%,80%,80%);stroke-opacity:1;stroke-miterlimit:10;" d="M 264.75 189.90625 L 254.417969 187.808594 "/>
<path style="fill:none;stroke-width:1.2;stroke-linecap:butt;stroke-linejoin:miter;stroke:rgb(0%,0%,0%);stroke-opacity:1;stroke-miterlimit:10;" d="M 254.417969 187.808594 L 244.089844 185.710938 "/>
<path style=" stroke:none;fill-rule:nonzero;fill:rgb(100%,100%,100%);fill-opacity:1;" d="M 261.75 184.40625 L 267.75 184.40625 L 267.75 195.40625 L 261.75 195.40625 Z M 261.75 184.40625 "/>
<g style="fill:rgb(20%,80%,80%);fill-opacity:1;">
  <use xlink:href="#glyph0-1" x="261.75" y="193.069336"/>
</g>
<path style="fill:none;stroke-width:1.2;stroke-linecap:butt;stroke-linejoin:miter;stroke:rgb(0%,0%,0%);stroke-opacity:1;stroke-miterlimit:10;" d="M 244.089844 185.710938 L 230.125 201.503906 "/>
<path style="fill:none;stroke-width:1.2;stroke-linecap:butt;stroke-linejoin:miter;stroke:rgb(0%,0%,0%);stroke-opacity:1;stroke-miterlimit:10;" d="M 238.976562 184.003906 L 227.804688 196.640625 "/>
<path style="fill:none;stroke-width:1.2;stroke-linecap:butt;stroke-linejoin:miter;stroke:rgb(0%,0%,0%);stroke-opacity:1;stroke-miterlimit:10;" d="M 237.390625 165.71875 L 244.089844 185.710938 "/>
<path style="fill:none;stroke-width:1.2;stroke-linecap:butt;stroke-linejoin:miter;stroke:rgb(0%,0%,0%);stroke-opacity:1;stroke-miterlimit:10;" d="M 230.125 201.503906 L 209.460938 197.308594 "/>
<path style="fill:none;stroke-width:1.2;stroke-linecap:butt;stroke-linejoin:miter;stroke:rgb(0%,0%,0%);stroke-opacity:1;stroke-miterlimit:10;" d="M 209.460938 197.308594 L 202.765625 177.316406 "/>
<path style="fill:none;stroke-width:1.2;stroke-linecap:butt;stroke-linejoin:miter;stroke:rgb(0%,0%,0%);stroke-opacity:1;stroke-miterlimit:10;" d="M 213.496094 193.734375 L 208.140625 177.738281 "/>
<path style="fill:none;stroke-width:1.2;stroke-linecap:butt;stroke-linejoin:miter;stroke:rgb(0%,0%,0%);stroke-opacity:1;stroke-miterlimit:10;" d="M 202.765625 177.316406 L 216.730469 161.519531 "/>
<path style="fill:none;stroke-width:1.2;stroke-linecap:butt;stroke-linejoin:miter;stroke:rgb(0%,0%,0%);stroke-opacity:1;stroke-miterlimit:10;" d="M 202.765625 177.316406 L 182.105469 173.121094 "/>
<path style="fill:none;stroke-width:1.2;stroke-linecap:butt;stroke-linejoin:miter;stroke:rgb(0%,0%,0%);stroke-opacity:1;stroke-miterlimit:10;" d="M 216.730469 161.519531 L 237.390625 165.71875 "/>
<path style="fill:none;stroke-width:1.2;stroke-linecap:butt;stroke-linejoin:miter;stroke:rgb(0%,0%,0%);stroke-opacity:1;stroke-miterlimit:10;" d="M 217.808594 166.800781 L 234.339844 170.160156 "/>
<path style="fill:none;stroke-width:1.2;stroke-linecap:butt;stroke-linejoin:miter;stroke:rgb(0%,0%,0%);stroke-opacity:1;stroke-miterlimit:10;" d="M 182.105469 173.121094 L 174.335938 180.246094 "/>
<path style="fill:none;stroke-width:1.2;stroke-linecap:butt;stroke-linejoin:miter;stroke:rgb(0%,0%,100%);stroke-opacity:1;stroke-miterlimit:10;" d="M 174.335938 180.246094 L 166.566406 187.367188 "/>
<path style="fill:none;stroke-width:1.2;stroke-linecap:butt;stroke-linejoin:miter;stroke:rgb(0%,0%,0%);stroke-opacity:1;stroke-miterlimit:10;" d="M 173.355469 153.9375 L 182.105469 173.121094 "/>
<path style="fill:none;stroke-width:1.2;stroke-linecap:butt;stroke-linejoin:miter;stroke:rgb(0%,0%,0%);stroke-opacity:1;stroke-miterlimit:10;" d="M 169.714844 157.914062 L 176.714844 173.261719 "/>
<path style="fill:none;stroke-width:1.2;stroke-linecap:butt;stroke-linejoin:miter;stroke:rgb(0%,0%,100%);stroke-opacity:1;stroke-miterlimit:10;" d="M 166.566406 187.367188 L 157.386719 182.179688 "/>
<path style="fill:none;stroke-width:1.2;stroke-linecap:butt;stroke-linejoin:miter;stroke:rgb(0%,0%,0%);stroke-opacity:1;stroke-miterlimit:10;" d="M 157.386719 182.179688 L 148.210938 176.992188 "/>
<path style="fill:none;stroke-width:1.2;stroke-linecap:butt;stroke-linejoin:miter;stroke:rgb(0%,0%,100%);stroke-opacity:1;stroke-miterlimit:10;" d="M 167.171875 182.011719 L 159.828125 177.863281 "/>
<path style="fill:none;stroke-width:1.2;stroke-linecap:butt;stroke-linejoin:miter;stroke:rgb(0%,0%,0%);stroke-opacity:1;stroke-miterlimit:10;" d="M 159.828125 177.863281 L 152.488281 173.710938 "/>
<path style=" stroke:none;fill-rule:nonzero;fill:rgb(100%,100%,100%);fill-opacity:1;" d="M 163.566406 181.867188 L 170.566406 181.867188 L 170.566406 192.867188 L 163.566406 192.867188 Z M 163.566406 181.867188 "/>
<g style="fill:rgb(0%,0%,100%);fill-opacity:1;">
  <use xlink:href="#glyph0-2" x="163.566406" y="190.530273"/>
</g>
<path style="fill:none;stroke-width:1.2;stroke-linecap:butt;stroke-linejoin:miter;stroke:rgb(0%,0%,0%);stroke-opacity:1;stroke-miterlimit:10;" d="M 148.210938 176.992188 L 150.308594 166.660156 "/>
<path style="fill:none;stroke-width:1.2;stroke-linecap:butt;stroke-linejoin:miter;stroke:rgb(0%,0%,100%);stroke-opacity:1;stroke-miterlimit:10;" d="M 150.308594 166.660156 L 152.410156 156.332031 "/>
<path style="fill:none;stroke-width:1.2;stroke-linecap:butt;stroke-linejoin:miter;stroke:rgb(0%,0%,100%);stroke-opacity:1;stroke-miterlimit:10;" d="M 152.410156 156.332031 L 145.285156 148.5625 "/>
<path style="fill:none;stroke-width:1.2;stroke-linecap:butt;stroke-linejoin:miter;stroke:rgb(0%,0%,0%);stroke-opacity:1;stroke-miterlimit:10;" d="M 145.285156 148.5625 L 138.160156 140.792969 "/>
<path style="fill:none;stroke-width:1.2;stroke-linecap:butt;stroke-linejoin:miter;stroke:rgb(0%,0%,100%);stroke-opacity:1;stroke-miterlimit:10;" d="M 152.410156 156.332031 L 162.882812 155.132812 "/>
<path style="fill:none;stroke-width:1.2;stroke-linecap:butt;stroke-linejoin:miter;stroke:rgb(0%,0%,0%);stroke-opacity:1;stroke-miterlimit:10;" d="M 162.882812 155.132812 L 173.355469 153.9375 "/>
<path style=" stroke:none;fill-rule:nonzero;fill:rgb(100%,100%,100%);fill-opacity:1;" d="M 149.410156 150.832031 L 156.410156 150.832031 L 156.410156 161.832031 L 149.410156 161.832031 Z M 149.410156 150.832031 "/>
<g style="fill:rgb(0%,0%,100%);fill-opacity:1;">
  <use xlink:href="#glyph0-2" x="149.410156" y="159.495117"/>
</g>
<path style="fill:none;stroke-width:1.2;stroke-linecap:butt;stroke-linejoin:miter;stroke:rgb(0%,0%,0%);stroke-opacity:1;stroke-miterlimit:10;" d="M 138.160156 140.792969 L 117.578125 145.363281 "/>
<path style="fill:none;stroke-width:1.2;stroke-linecap:butt;stroke-linejoin:miter;stroke:rgb(0%,0%,0%);stroke-opacity:1;stroke-miterlimit:10;" d="M 117.578125 145.363281 L 111.246094 165.472656 "/>
<path style="fill:none;stroke-width:1.2;stroke-linecap:butt;stroke-linejoin:miter;stroke:rgb(0%,0%,0%);stroke-opacity:1;stroke-miterlimit:10;" d="M 112.210938 145.882812 L 107.144531 161.96875 "/>
<path style="fill:none;stroke-width:1.2;stroke-linecap:butt;stroke-linejoin:miter;stroke:rgb(0%,0%,0%);stroke-opacity:1;stroke-miterlimit:10;" d="M 103.328125 129.824219 L 117.578125 145.363281 "/>
<path style="fill:none;stroke-width:1.2;stroke-linecap:butt;stroke-linejoin:miter;stroke:rgb(0%,0%,0%);stroke-opacity:1;stroke-miterlimit:10;" d="M 111.246094 165.472656 L 90.664062 170.042969 "/>
<path style="fill:none;stroke-width:1.2;stroke-linecap:butt;stroke-linejoin:miter;stroke:rgb(0%,0%,0%);stroke-opacity:1;stroke-miterlimit:10;" d="M 90.664062 170.042969 L 76.414062 154.503906 "/>
<path style="fill:none;stroke-width:1.2;stroke-linecap:butt;stroke-linejoin:miter;stroke:rgb(0%,0%,0%);stroke-opacity:1;stroke-miterlimit:10;" d="M 92.894531 165.136719 L 81.496094 152.703125 "/>
<path style="fill:none;stroke-width:1.2;stroke-linecap:butt;stroke-linejoin:miter;stroke:rgb(0%,0%,0%);stroke-opacity:1;stroke-miterlimit:10;" d="M 76.414062 154.503906 L 82.746094 134.394531 "/>
<path style="fill:none;stroke-width:1.2;stroke-linecap:butt;stroke-linejoin:miter;stroke:rgb(0%,0%,0%);stroke-opacity:1;stroke-miterlimit:10;" d="M 76.414062 154.503906 L 55.832031 159.074219 "/>
<path style="fill:none;stroke-width:1.2;stroke-linecap:butt;stroke-linejoin:miter;stroke:rgb(0%,0%,0%);stroke-opacity:1;stroke-miterlimit:10;" d="M 82.746094 134.394531 L 103.328125 129.824219 "/>
<path style="fill:none;stroke-width:1.2;stroke-linecap:butt;stroke-linejoin:miter;stroke:rgb(0%,0%,0%);stroke-opacity:1;stroke-miterlimit:10;" d="M 85.878906 138.777344 L 102.347656 135.121094 "/>
<path style="fill:none;stroke-width:1.2;stroke-linecap:butt;stroke-linejoin:miter;stroke:rgb(0%,0%,0%);stroke-opacity:1;stroke-miterlimit:10;" d="M 55.832031 159.074219 L 45.539062 161.355469 "/>
<path style="fill:none;stroke-width:1.2;stroke-linecap:butt;stroke-linejoin:miter;stroke:rgb(0%,0%,100%);stroke-opacity:1;stroke-miterlimit:10;" d="M 45.539062 161.355469 L 35.25 163.640625 "/>
<path style="fill:none;stroke-width:1.2;stroke-linecap:butt;stroke-linejoin:miter;stroke:rgb(0%,0%,0%);stroke-opacity:1;stroke-miterlimit:10;" d="M 52.699219 154.6875 L 44.464844 156.515625 "/>
<path style="fill:none;stroke-width:1.2;stroke-linecap:butt;stroke-linejoin:miter;stroke:rgb(0%,0%,100%);stroke-opacity:1;stroke-miterlimit:10;" d="M 44.464844 156.515625 L 36.234375 158.34375 "/>
<path style="fill:none;stroke-width:1.2;stroke-linecap:butt;stroke-linejoin:miter;stroke:rgb(0%,0%,0%);stroke-opacity:1;stroke-miterlimit:10;" d="M 54.847656 164.371094 L 46.617188 166.199219 "/>
<path style="fill:none;stroke-width:1.2;stroke-linecap:butt;stroke-linejoin:miter;stroke:rgb(0%,0%,100%);stroke-opacity:1;stroke-miterlimit:10;" d="M 46.617188 166.199219 L 38.382812 168.027344 "/>
<path style=" stroke:none;fill-rule:nonzero;fill:rgb(100%,100%,100%);fill-opacity:1;" d="M 28.25 158.140625 L 35.25 158.140625 L 35.25 169.140625 L 28.25 169.140625 Z M 28.25 158.140625 "/>
<g style="fill:rgb(0%,0%,100%);fill-opacity:1;">
  <use xlink:href="#glyph0-2" x="28.25" y="166.803711"/>
</g>
<path style="fill:none;stroke-width:1.2;stroke-linecap:butt;stroke-linejoin:miter;stroke:rgb(0%,0%,0%);stroke-opacity:1;stroke-miterlimit:10;" d="M 173.355469 153.9375 L 183.730469 135.585938 "/>
<path style="fill:none;stroke-width:1.2;stroke-linecap:butt;stroke-linejoin:miter;stroke:rgb(0%,0%,0%);stroke-opacity:1;stroke-miterlimit:10;" d="M 183.730469 135.585938 L 194.273438 135.488281 "/>
<path style="fill:none;stroke-width:1.2;stroke-linecap:butt;stroke-linejoin:miter;stroke:rgb(0%,0%,100%);stroke-opacity:1;stroke-miterlimit:10;" d="M 194.273438 135.488281 L 204.8125 135.394531 "/>
<path style="fill:none;stroke-width:1.2;stroke-linecap:butt;stroke-linejoin:miter;stroke:rgb(0%,0%,0%);stroke-opacity:1;stroke-miterlimit:10;" d="M 185.792969 130.605469 L 194.226562 130.527344 "/>
<path style="fill:none;stroke-width:1.2;stroke-linecap:butt;stroke-linejoin:miter;stroke:rgb(0%,0%,100%);stroke-opacity:1;stroke-miterlimit:10;" d="M 194.226562 130.527344 L 202.660156 130.453125 "/>
<path style="fill:none;stroke-width:1.2;stroke-linecap:butt;stroke-linejoin:miter;stroke:rgb(0%,0%,0%);stroke-opacity:1;stroke-miterlimit:10;" d="M 173.023438 117.421875 L 183.730469 135.585938 "/>
<path style="fill:none;stroke-width:1.2;stroke-linecap:butt;stroke-linejoin:miter;stroke:rgb(0%,0%,100%);stroke-opacity:1;stroke-miterlimit:10;" d="M 204.8125 135.394531 L 210 126.21875 "/>
<path style="fill:none;stroke-width:1.2;stroke-linecap:butt;stroke-linejoin:miter;stroke:rgb(0%,0%,0%);stroke-opacity:1;stroke-miterlimit:10;" d="M 210 126.21875 L 215.1875 117.039062 "/>
<path style=" stroke:none;fill-rule:nonzero;fill:rgb(100%,100%,100%);fill-opacity:1;" d="M 201.8125 129.894531 L 208.8125 129.894531 L 208.8125 140.894531 L 201.8125 140.894531 Z M 201.8125 129.894531 "/>
<g style="fill:rgb(0%,0%,100%);fill-opacity:1;">
  <use xlink:href="#glyph0-2" x="201.8125" y="138.557617"/>
</g>
<path style="fill:none;stroke-width:1.2;stroke-linecap:butt;stroke-linejoin:miter;stroke:rgb(0%,0%,0%);stroke-opacity:1;stroke-miterlimit:10;" d="M 215.1875 117.039062 L 225.730469 116.945312 "/>
<path style="fill:none;stroke-width:1.2;stroke-linecap:butt;stroke-linejoin:miter;stroke:rgb(100%,0%,0%);stroke-opacity:1;stroke-miterlimit:10;" d="M 225.730469 116.945312 L 236.269531 116.847656 "/>
<path style="fill:none;stroke-width:1.2;stroke-linecap:butt;stroke-linejoin:miter;stroke:rgb(0%,0%,0%);stroke-opacity:1;stroke-miterlimit:10;" d="M 215.1875 117.039062 L 209.835938 107.960938 "/>
<path style="fill:none;stroke-width:1.2;stroke-linecap:butt;stroke-linejoin:miter;stroke:rgb(0%,0%,100%);stroke-opacity:1;stroke-miterlimit:10;" d="M 209.835938 107.960938 L 204.484375 98.878906 "/>
<path style="fill:none;stroke-width:1.2;stroke-linecap:butt;stroke-linejoin:miter;stroke:rgb(0%,0%,0%);stroke-opacity:1;stroke-miterlimit:10;" d="M 209.84375 117.742188 L 205.5625 110.476562 "/>
<path style="fill:none;stroke-width:1.2;stroke-linecap:butt;stroke-linejoin:miter;stroke:rgb(0%,0%,100%);stroke-opacity:1;stroke-miterlimit:10;" d="M 205.5625 110.476562 L 201.28125 103.214844 "/>
<path style="fill:none;stroke-width:1.2;stroke-linecap:butt;stroke-linejoin:miter;stroke:rgb(100%,0%,0%);stroke-opacity:1;stroke-miterlimit:10;" d="M 236.269531 116.847656 L 241.460938 107.671875 "/>
<path style="fill:none;stroke-width:1.2;stroke-linecap:butt;stroke-linejoin:miter;stroke:rgb(0%,0%,0%);stroke-opacity:1;stroke-miterlimit:10;" d="M 241.460938 107.671875 L 246.648438 98.496094 "/>
<path style=" stroke:none;fill-rule:nonzero;fill:rgb(100%,100%,100%);fill-opacity:1;" d="M 232.269531 111.347656 L 240.269531 111.347656 L 240.269531 122.347656 L 232.269531 122.347656 Z M 232.269531 111.347656 "/>
<g style="fill:rgb(100%,0%,0%);fill-opacity:1;">
  <use xlink:href="#glyph0-3" x="232.269531" y="120.010742"/>
</g>
<path style="fill:none;stroke-width:1.2;stroke-linecap:butt;stroke-linejoin:miter;stroke:rgb(0%,0%,100%);stroke-opacity:1;stroke-miterlimit:10;" d="M 204.484375 98.878906 L 193.941406 98.972656 "/>
<path style="fill:none;stroke-width:1.2;stroke-linecap:butt;stroke-linejoin:miter;stroke:rgb(0%,0%,0%);stroke-opacity:1;stroke-miterlimit:10;" d="M 193.941406 98.972656 L 183.398438 99.070312 "/>
<path style=" stroke:none;fill-rule:nonzero;fill:rgb(100%,100%,100%);fill-opacity:1;" d="M 201.484375 93.378906 L 208.484375 93.378906 L 208.484375 104.378906 L 201.484375 104.378906 Z M 201.484375 93.378906 "/>
<g style="fill:rgb(0%,0%,100%);fill-opacity:1;">
  <use xlink:href="#glyph0-2" x="201.484375" y="102.041992"/>
</g>
<path style="fill:none;stroke-width:1.2;stroke-linecap:butt;stroke-linejoin:miter;stroke:rgb(0%,0%,0%);stroke-opacity:1;stroke-miterlimit:10;" d="M 183.398438 99.070312 L 173.023438 117.421875 "/>
<path style="fill:none;stroke-width:1.2;stroke-linecap:butt;stroke-linejoin:miter;stroke:rgb(0%,0%,0%);stroke-opacity:1;stroke-miterlimit:10;" d="M 186.679688 103.34375 L 178.378906 118.027344 "/>
</g>
</svg>

<svg xmlns="http://www.w3.org/2000/svg" xmlns:xlink="http://www.w3.org/1999/xlink" width="300pt" height="300pt" viewBox="0 0 300 300"><defs><symbol overflow="visible"><path d="M.453 1.594v-7.938h4.5v7.938zm.5-.5h3.5v-6.938h-3.5zm0 0"/></symbol><symbol overflow="visible" id="a"><path d="M.89-6.563h3.766v.75h-2.89v1.938h2.61v.734h-2.61V0H.89zm0 0"/></symbol><symbol overflow="visible" id="b"><path d="M.89-6.563H2.08l2.906 5.485v-5.484h.86V0H4.656L1.75-5.484V0H.89zm0 0"/></symbol><symbol overflow="visible" id="c"><path d="M3.547-5.953c-.65 0-1.164.242-1.547.72-.375.48-.563 1.13-.563 1.952 0 .835.188 1.49.563 1.967.383.48.898.72 1.547.72.644 0 1.156-.24 1.53-.72.376-.476.564-1.132.564-1.968 0-.822-.187-1.474-.562-1.954-.375-.477-.887-.72-1.53-.72zm0-.734c.914 0 1.648.312 2.203.937.55.617.828 1.438.828 2.47 0 1.042-.277 1.87-.828 2.483-.555.617-1.29.922-2.203.922-.93 0-1.668-.305-2.22-.922C.774-1.41.5-2.237.5-3.28c0-1.033.273-1.853.828-2.47.55-.625 1.29-.938 2.22-.938zm0 0"/></symbol></defs><g><path fill="#fff" d="M0 0h300v300H0z"/><path d="M264.75 189.906l-10.332-2.097" stroke-width="1.2" stroke="#3cc" stroke-miterlimit="10" fill="none"/><path d="M254.418 187.81l-10.328-2.1" stroke-width="1.2" stroke="#000" stroke-miterlimit="10" fill="none"/><path d="M261.75 184.406h6v11h-6zm0 0" fill="#fff"/><use xlink:href="#a" x="261.75" y="193.069" fill="#3cc"/><path d="M244.09 185.71l-13.965 15.794M238.977 184.004l-11.172 12.637M237.39 165.72l6.7 19.99M230.125 201.504l-20.664-4.195M209.46 197.31l-6.694-19.994M213.496 193.734l-5.355-15.996M202.766 177.316l13.964-15.796M202.766 177.316l-20.66-4.195M216.73 161.52l20.66 4.2M217.81 166.8l16.53 3.36M182.105 173.12l-7.77 7.126" stroke-width="1.2" stroke="#000" stroke-miterlimit="10" fill="none"/><path d="M174.336 180.246l-7.77 7.12" stroke-width="1.2" stroke="#00f" stroke-miterlimit="10" fill="none"/><path d="M173.355 153.938l8.75 19.183M169.715 157.914l7 15.348" stroke-width="1.2" stroke="#000" stroke-miterlimit="10" fill="none"/><path d="M166.566 187.367l-9.18-5.187" stroke-width="1.2" stroke="#00f" stroke-miterlimit="10" fill="none"/><path d="M157.387 182.18l-9.176-5.188" stroke-width="1.2" stroke="#000" stroke-miterlimit="10" fill="none"/><path d="M167.172 182.012l-7.344-4.15" stroke-width="1.2" stroke="#00f" stroke-miterlimit="10" fill="none"/><path d="M159.828 177.863l-7.34-4.152" stroke-width="1.2" stroke="#000" stroke-miterlimit="10" fill="none"/><path d="M163.566 181.867h7v11h-7zm0 0" fill="#fff"/><use xlink:href="#b" x="163.566" y="190.53" fill="#00f"/><path d="M148.21 176.992l2.1-10.332" stroke-width="1.2" stroke="#000" stroke-miterlimit="10" fill="none"/><path d="M150.31 166.66l2.1-10.328M152.41 156.332l-7.125-7.77" stroke-width="1.2" stroke="#00f" stroke-miterlimit="10" fill="none"/><path d="M145.285 148.563l-7.125-7.77" stroke-width="1.2" stroke="#000" stroke-miterlimit="10" fill="none"/><path d="M152.41 156.332l10.473-1.2" stroke-width="1.2" stroke="#00f" stroke-miterlimit="10" fill="none"/><path d="M162.883 155.133l10.472-1.196" stroke-width="1.2" stroke="#000" stroke-miterlimit="10" fill="none"/><path d="M149.41 150.832h7v11h-7zm0 0" fill="#fff"/><use xlink:href="#b" x="149.41" y="159.495" fill="#00f"/><path d="M138.16 140.793l-20.582 4.57M117.578 145.363l-6.332 20.11M112.21 145.883l-5.065 16.086M103.328 129.824l14.25 15.54M111.246 165.473l-20.582 4.57M90.664 170.043l-14.25-15.54M92.895 165.137l-11.4-12.434M76.414 154.504l6.332-20.11M76.414 154.504l-20.582 4.57M82.746 134.395l20.582-4.57M85.88 138.777l16.468-3.656M55.832 159.074l-10.293 2.28" stroke-width="1.2" stroke="#000" stroke-miterlimit="10" fill="none"/><path d="M45.54 161.355l-10.29 2.286" stroke-width="1.2" stroke="#00f" stroke-miterlimit="10" fill="none"/><path d="M52.7 154.688l-8.235 1.828" stroke-width="1.2" stroke="#000" stroke-miterlimit="10" fill="none"/><path d="M44.465 156.516l-8.23 1.828" stroke-width="1.2" stroke="#00f" stroke-miterlimit="10" fill="none"/><path d="M54.848 164.37l-8.23 1.83" stroke-width="1.2" stroke="#000" stroke-miterlimit="10" fill="none"/><path d="M46.617 166.2l-8.234 1.827" stroke-width="1.2" stroke="#00f" stroke-miterlimit="10" fill="none"/><path d="M28.25 158.14h7v11h-7zm0 0" fill="#fff"/><use xlink:href="#b" x="28.25" y="166.804" fill="#00f"/><path d="M173.355 153.938l10.375-18.352M183.73 135.586l10.543-.098" stroke-width="1.2" stroke="#000" stroke-miterlimit="10" fill="none"/><path d="M194.273 135.488l10.54-.093" stroke-width="1.2" stroke="#00f" stroke-miterlimit="10" fill="none"/><path d="M185.793 130.605l8.434-.078" stroke-width="1.2" stroke="#000" stroke-miterlimit="10" fill="none"/><path d="M194.227 130.527l8.433-.074" stroke-width="1.2" stroke="#00f" stroke-miterlimit="10" fill="none"/><path d="M173.023 117.422l10.707 18.164" stroke-width="1.2" stroke="#000" stroke-miterlimit="10" fill="none"/><path d="M204.813 135.395L210 126.22" stroke-width="1.2" stroke="#00f" stroke-miterlimit="10" fill="none"/><path d="M210 126.22l5.188-9.18" stroke-width="1.2" stroke="#000" stroke-miterlimit="10" fill="none"/><path d="M201.813 129.895h7v11h-7zm0 0" fill="#fff"/><use xlink:href="#b" x="201.813" y="138.558" fill="#00f"/><path d="M215.188 117.04l10.542-.095" stroke-width="1.2" stroke="#000" stroke-miterlimit="10" fill="none"/><path d="M225.73 116.945l10.54-.097" stroke-width="1.2" stroke="#f00" stroke-miterlimit="10" fill="none"/><path d="M215.188 117.04l-5.352-9.08" stroke-width="1.2" stroke="#000" stroke-miterlimit="10" fill="none"/><path d="M209.836 107.96l-5.352-9.08" stroke-width="1.2" stroke="#00f" stroke-miterlimit="10" fill="none"/><path d="M209.844 117.742l-4.28-7.265" stroke-width="1.2" stroke="#000" stroke-miterlimit="10" fill="none"/><path d="M205.563 110.477l-4.282-7.262" stroke-width="1.2" stroke="#00f" stroke-miterlimit="10" fill="none"/><path d="M236.27 116.848l5.19-9.176" stroke-width="1.2" stroke="#f00" stroke-miterlimit="10" fill="none"/><path d="M241.46 107.672l5.188-9.176" stroke-width="1.2" stroke="#000" stroke-miterlimit="10" fill="none"/><path d="M232.27 111.348h8v11h-8zm0 0" fill="#fff"/><use xlink:href="#c" x="232.27" y="120.011" fill="#f00"/><path d="M204.484 98.88l-10.543.093" stroke-width="1.2" stroke="#00f" stroke-miterlimit="10" fill="none"/><path d="M193.94 98.973l-10.542.097" stroke-width="1.2" stroke="#000" stroke-miterlimit="10" fill="none"/><path d="M201.484 93.38h7v11h-7zm0 0" fill="#fff"/><use xlink:href="#b" x="201.484" y="102.042" fill="#00f"/><path d="M183.398 99.07l-10.375 18.352M186.68 103.344l-8.3 14.683" stroke-width="1.2" stroke="#000" stroke-miterlimit="10" fill="none"/></g></svg>
